flaticon/outdoor/tent.svg

<svg xmlns="http://www.w3.org/2000/svg" width="32" height="32" viewBox="0 0 24 24">
    <path d="M5.199219 16.398438C5.199219 16.621094 5.019531 16.800781 4.800781 16.800781 4.578125 16.800781 4.398438 16.621094 4.398438 16.398438 4.398438 16.179688 4.578125 16 4.800781 16 5.019531 16 5.199219 16.179688 5.199219 16.398438zM7.601562 16.398438C7.601562 16.621094 7.421875 16.800781 7.199219 16.800781 6.980469 16.800781 6.800781 16.621094 6.800781 16.398438 6.800781 16.179688 6.980469 16 7.199219 16 7.421875 16 7.601562 16.179688 7.601562 16.398438zM8.398438 17.199219C8.398438 17.421875 8.222656 17.601562 8 17.601562 7.777344 17.601562 7.601562 17.421875 7.601562 17.199219 7.601562 16.980469 7.777344 16.800781 8 16.800781 8.222656 16.800781 8.398438 16.980469 8.398438 17.199219zM4.398438 17.199219C4.398438 17.421875 4.222656 17.601562 4 17.601562 3.777344 17.601562 3.601562 17.421875 3.601562 17.199219 3.601562 16.980469 3.777344 16.800781 4 16.800781 4.222656 16.800781 4.398438 16.980469 4.398438 17.199219zM4.398438 18.800781C4.398438 19.019531 4.222656 19.199219 4 19.199219 3.777344 19.199219 3.601562 19.019531 3.601562 18.800781 3.601562 18.578125 3.777344 18.398438 4 18.398438 4.222656 18.398438 4.398438 18.578125 4.398438 18.800781zM5.199219 18C5.199219 18.222656 5.019531 18.398438 4.800781 18.398438 4.578125 18.398438 4.398438 18.222656 4.398438 18 4.398438 17.777344 4.578125 17.601562 4.800781 17.601562 5.019531 17.601562 5.199219 17.777344 5.199219 18zM5.199219 19.601562C5.199219 19.820312 5.019531 20 4.800781 20 4.578125 20 4.398438 19.820312 4.398438 19.601562 4.398438 19.378906 4.578125 19.199219 4.800781 19.199219 5.019531 19.199219 5.199219 19.378906 5.199219 19.601562zM4.398438 20.398438C4.398438 20.621094 4.222656 20.800781 4 20.800781 3.777344 20.800781 3.601562 20.621094 3.601562 20.398438 3.601562 20.179688 3.777344 20 4 20 4.222656 20 4.398438 20.179688 4.398438 20.398438zM7.601562 18C7.601562 18.222656 7.421875 18.398438 7.199219 18.398438 6.980469 18.398438 6.800781 18.222656 6.800781 18 6.800781 17.777344 6.980469 17.601562 7.199219 17.601562 7.421875 17.601562 7.601562 17.777344 7.601562 18zM7.601562 19.601562C7.601562 19.820312 7.421875 20 7.199219 20 6.980469 20 6.800781 19.820312 6.800781 19.601562 6.800781 19.378906 6.980469 19.199219 7.199219 19.199219 7.421875 19.199219 7.601562 19.378906 7.601562 19.601562zM19.601562 16.398438C19.601562 16.621094 19.421875 16.800781 19.199219 16.800781 18.980469 16.800781 18.800781 16.621094 18.800781 16.398438 18.800781 16.179688 18.980469 16 19.199219 16 19.421875 16 19.601562 16.179688 19.601562 16.398438zM17.199219 16.398438C17.199219 16.621094 17.019531 16.800781 16.800781 16.800781 16.578125 16.800781 16.398438 16.621094 16.398438 16.398438 16.398438 16.179688 16.578125 16 16.800781 16 17.019531 16 17.199219 16.179688 17.199219 16.398438zM16.398438 17.199219C16.398438 17.421875 16.222656 17.601562 16 17.601562 15.777344 17.601562 15.601562 17.421875 15.601562 17.199219 15.601562 16.980469 15.777344 16.800781 16 16.800781 16.222656 16.800781 16.398438 16.980469 16.398438 17.199219zM20.398438 17.199219C20.398438 17.421875 20.222656 17.601562 20 17.601562 19.777344 17.601562 19.601562 17.421875 19.601562 17.199219 19.601562 16.980469 19.777344 16.800781 20 16.800781 20.222656 16.800781 20.398438 16.980469 20.398438 17.199219zM20.398438 18.800781C20.398438 19.019531 20.222656 19.199219 20 19.199219 19.777344 19.199219 19.601562 19.019531 19.601562 18.800781 19.601562 18.578125 19.777344 18.398438 20 18.398438 20.222656 18.398438 20.398438 18.578125 20.398438 18.800781zM19.601562 18C19.601562 18.222656 19.421875 18.398438 19.199219 18.398438 18.980469 18.398438 18.800781 18.222656 18.800781 18 18.800781 17.777344 18.980469 17.601562 19.199219 17.601562 19.421875 17.601562 19.601562 17.777344 19.601562 18zM19.601562 19.601562C19.601562 19.820312 19.421875 20 19.199219 20 18.980469 20 18.800781 19.820312 18.800781 19.601562 18.800781 19.378906 18.980469 19.199219 19.199219 19.199219 19.421875 19.199219 19.601562 19.378906 19.601562 19.601562zM20.398438 20.398438C20.398438 20.621094 20.222656 20.800781 20 20.800781 19.777344 20.800781 19.601562 20.621094 19.601562 20.398438 19.601562 20.179688 19.777344 20 20 20 20.222656 20 20.398438 20.179688 20.398438 20.398438zM17.199219 18C17.199219 18.222656 17.019531 18.398438 16.800781 18.398438 16.578125 18.398438 16.398438 18.222656 16.398438 18 16.398438 17.777344 16.578125 17.601562 16.800781 17.601562 17.019531 17.601562 17.199219 17.777344 17.199219 18zM17.199219 19.601562C17.199219 19.820312 17.019531 20 16.800781 20 16.578125 20 16.398438 19.820312 16.398438 19.601562 16.398438 19.378906 16.578125 19.199219 16.800781 19.199219 17.019531 19.199219 17.199219 19.378906 17.199219 19.601562zM17.199219 19.601562"/>
    <path d="M 23.984375 21.488281 L 20.390625 9.117188 L 20.371094 8.964844 L 12.398438 3.78125 L 12.398438 3.199219 L 18 3.199219 L 15.867188 1.601562 L 18 0 L 11.601562 0 L 11.601562 3.78125 L 3.625 8.96875 L 3.605469 9.121094 L 0.015625 21.488281 C -0.046875 21.699219 0.078125 21.921875 0.289062 21.984375 C 0.324219 21.996094 0.363281 22 0.402344 22 C 0.574219 22 0.734375 21.886719 0.785156 21.710938 L 3.027344 13.988281 L 2.070312 22 L 5.601562 22 L 5.601562 23.199219 L 5.199219 23.199219 L 5.199219 24 L 6.800781 24 L 6.800781 23.199219 L 6.398438 23.199219 L 6.398438 22 L 17.601562 22 L 17.601562 23.199219 L 17.199219 23.199219 L 17.199219 24 L 18.800781 24 L 18.800781 23.199219 L 18.398438 23.199219 L 18.398438 22 L 22.160156 22 L 21.140625 14.5625 L 23.214844 21.710938 C 23.265625 21.886719 23.425781 22 23.601562 22 C 23.636719 22 23.675781 21.996094 23.710938 21.984375 C 23.925781 21.921875 24.046875 21.699219 23.984375 21.488281 Z M 12.398438 0.800781 L 15.601562 0.800781 L 14.53125 1.601562 L 15.601562 2.398438 L 12.398438 2.398438 Z M 5.601562 21.199219 L 5.199219 21.199219 C 5.199219 20.980469 5.019531 20.800781 4.800781 20.800781 C 4.578125 20.800781 4.398438 20.980469 4.398438 21.199219 L 3.601562 21.199219 C 3.601562 20.980469 3.421875 20.800781 3.199219 20.800781 C 3.132812 20.800781 3.070312 20.820312 3.011719 20.851562 L 3.117188 19.984375 C 3.144531 19.988281 3.171875 20 3.199219 20 C 3.421875 20 3.601562 19.820312 3.601562 19.601562 C 3.601562 19.382812 3.425781 19.207031 3.210938 19.203125 L 3.308594 18.378906 C 3.476562 18.328125 3.601562 18.183594 3.601562 18 C 3.601562 17.851562 3.515625 17.726562 3.394531 17.65625 L 3.515625 16.632812 C 3.566406 16.566406 3.601562 16.488281 3.601562 16.398438 C 3.601562 16.339844 3.585938 16.289062 3.5625 16.238281 L 4.375 9.433594 L 11.601562 4.738281 L 11.601562 10 L 6 10 C 5.339844 10 4.800781 10.539062 4.800781 11.199219 C 4.800781 11.722656 5.136719 12.160156 5.601562 12.328125 Z M 7.601562 19.601562 L 7.601562 21.199219 C 7.601562 20.980469 7.421875 20.800781 7.199219 20.800781 C 6.980469 20.800781 6.800781 20.980469 6.800781 21.199219 L 6.398438 21.199219 L 6.398438 20.800781 C 6.621094 20.800781 6.800781 20.621094 6.800781 20.398438 C 6.800781 20.179688 6.621094 20 6.398438 20 L 6.398438 19.199219 C 6.621094 19.199219 6.800781 19.019531 6.800781 18.800781 C 6.800781 18.578125 6.621094 18.398438 6.398438 18.398438 L 6.398438 17.601562 C 6.621094 17.601562 6.800781 17.421875 6.800781 17.199219 C 6.800781 16.980469 6.621094 16.800781 6.398438 16.800781 L 6.398438 12.398438 L 11.300781 12.398438 L 9.097656 16.140625 C 9.027344 16.058594 8.921875 16 8.800781 16 C 8.578125 16 8.398438 16.179688 8.398438 16.398438 C 8.398438 16.59375 8.539062 16.746094 8.722656 16.785156 L 7.601562 18.691406 Z M 11.601562 21.199219 L 8.398438 21.199219 L 8.398438 18.910156 L 11.601562 13.46875 Z M 15.601562 21.199219 L 12.398438 21.199219 L 12.398438 13.46875 L 15.601562 18.910156 Z M 17.601562 21.199219 L 17.199219 21.199219 C 17.199219 20.980469 17.019531 20.800781 16.800781 20.800781 C 16.578125 20.800781 16.398438 20.980469 16.398438 21.199219 L 16.398438 18.691406 L 15.277344 16.785156 C 15.460938 16.746094 15.601562 16.59375 15.601562 16.398438 C 15.601562 16.179688 15.421875 16 15.199219 16 C 15.078125 16 14.972656 16.058594 14.902344 16.140625 L 12.699219 12.398438 L 17.601562 12.398438 L 17.601562 16.800781 C 17.378906 16.800781 17.199219 16.980469 17.199219 17.199219 C 17.199219 17.421875 17.378906 17.601562 17.601562 17.601562 L 17.601562 18.398438 C 17.378906 18.398438 17.199219 18.578125 17.199219 18.800781 C 17.199219 19.019531 17.378906 19.199219 17.601562 19.199219 L 17.601562 20 C 17.378906 20 17.199219 20.179688 17.199219 20.398438 C 17.199219 20.621094 17.378906 20.800781 17.601562 20.800781 Z M 18 11.601562 L 6 11.601562 C 5.78125 11.601562 5.601562 11.421875 5.601562 11.199219 C 5.601562 10.980469 5.78125 10.800781 6 10.800781 L 18 10.800781 C 18.21875 10.800781 18.398438 10.980469 18.398438 11.199219 C 18.398438 11.421875 18.222656 11.601562 18 11.601562 Z M 21.199219 21.199219 C 21.199219 20.980469 21.019531 20.800781 20.800781 20.800781 C 20.578125 20.800781 20.398438 20.980469 20.398438 21.199219 L 19.601562 21.199219 C 19.601562 20.980469 19.421875 20.800781 19.199219 20.800781 C 18.980469 20.800781 18.800781 20.980469 18.800781 21.199219 L 18.398438 21.199219 L 18.398438 12.328125 C 18.863281 12.160156 19.199219 11.722656 19.199219 11.199219 C 19.199219 10.539062 18.660156 10 18 10 L 12.398438 10 L 12.398438 4.738281 L 19.628906 9.4375 L 20.542969 16.097656 C 20.457031 16.171875 20.398438 16.277344 20.398438 16.398438 C 20.398438 16.5625 20.496094 16.699219 20.636719 16.761719 L 20.75 17.609375 C 20.554688 17.636719 20.398438 17.796875 20.398438 18 C 20.398438 18.222656 20.578125 18.398438 20.800781 18.398438 C 20.820312 18.398438 20.839844 18.390625 20.859375 18.386719 L 20.976562 19.246094 C 20.921875 19.21875 20.863281 19.199219 20.800781 19.199219 C 20.578125 19.199219 20.398438 19.378906 20.398438 19.601562 C 20.398438 19.820312 20.578125 20 20.800781 20 C 20.902344 20 20.996094 19.957031 21.066406 19.894531 L 21.246094 21.199219 Z M 21.199219 21.199219"/>
</svg>

<svg xmlns="http://www.w3.org/2000/svg" width="32" height="32" viewBox="0 0 24 24">
    <path d="M5.2 16.398a.401.401 0 1 1-.803.003.401.401 0 0 1 .802-.003zm0 0M7.602 16.398a.401.401 0 1 1 0 0zm0 0M8.398 17.2a.398.398 0 1 1-.796 0 .398.398 0 1 1 .796 0zm0 0M4.398 17.2a.398.398 0 1 1-.796 0 .398.398 0 1 1 .796 0zm0 0M4.398 18.8a.398.398 0 1 1-.796 0 .398.398 0 1 1 .796 0zm0 0M5.2 18c0 .223-.18.398-.4.398a.398.398 0 1 1 0-.796c.22 0 .4.175.4.398zm0 0M5.2 19.602a.4.4 0 1 1-.801-.004.4.4 0 0 1 .8.004zm0 0M4.398 20.398a.398.398 0 1 1-.796 0 .398.398 0 1 1 .796 0zm0 0M7.602 18c0 .223-.18.398-.403.398a.398.398 0 1 1 0-.796c.223 0 .403.175.403.398zm0 0M7.602 19.602a.401.401 0 1 1-.802-.005.401.401 0 0 1 .802.005zm0 0M19.602 16.398a.401.401 0 1 1 0 0zm0 0M17.2 16.398a.401.401 0 1 1-.803.003.401.401 0 0 1 .802-.003zm0 0M16.398 17.2a.398.398 0 1 1-.796 0 .398.398 0 1 1 .796 0zm0 0M20.398 17.2a.398.398 0 1 1-.796 0 .398.398 0 1 1 .796 0zm0 0M20.398 18.8a.398.398 0 1 1-.796 0 .398.398 0 1 1 .796 0zm0 0M19.602 18c0 .223-.18.398-.403.398a.398.398 0 1 1 0-.796c.223 0 .403.175.403.398zm0 0M19.602 19.602a.401.401 0 1 1-.802-.005.401.401 0 0 1 .802.005zm0 0M20.398 20.398a.398.398 0 1 1-.796 0 .398.398 0 1 1 .796 0zm0 0M17.2 18c0 .223-.18.398-.4.398a.398.398 0 1 1 0-.796c.22 0 .4.175.4.398zm0 0M17.2 19.602a.4.4 0 1 1-.801-.004.4.4 0 0 1 .8.004zm0 0"/>
    <path d="M23.984 21.488l-3.593-12.37-.02-.153-7.973-5.184V3.2H18l-2.133-1.597L18 0h-6.398v3.781L3.625 8.97l-.02.152-3.59 12.367A.402.402 0 0 0 .403 22a.4.4 0 0 0 .383-.29l2.242-7.722L2.07 22h3.532v1.2h-.403v.8h1.602v-.8h-.403V22h11.204v1.2h-.403v.8h1.602v-.8h-.403V22h3.762l-1.02-7.438 2.075 7.149a.4.4 0 0 0 .77-.223zM12.398.801h3.204l-1.07.8 1.07.797h-3.204zM5.602 21.199h-.403a.4.4 0 0 0-.8 0h-.797a.401.401 0 0 0-.403-.398.397.397 0 0 0-.187.05l.105-.867c.028.004.055.016.082.016a.399.399 0 0 0 .012-.797l.098-.824A.397.397 0 0 0 3.602 18a.4.4 0 0 0-.207-.344l.12-1.023a.383.383 0 0 0 .087-.235.372.372 0 0 0-.04-.16l.813-6.804 7.227-4.696V10H6c-.66 0-1.2.54-1.2 1.2 0 .523.337.96.802 1.128zm2-1.597v1.597a.401.401 0 0 0-.801 0h-.403v-.398a.401.401 0 0 0 0-.8v-.802a.401.401 0 1 0 0-.8v-.797a.401.401 0 0 0 0-.8v-4.404h4.903l-2.203 3.743A.393.393 0 0 0 8.8 16a.401.401 0 0 0-.403.398c0 .196.141.348.325.387l-1.121 1.906zm4 1.597H8.398V18.91l3.204-5.441zm4 0h-3.204v-7.73l3.204 5.441zm2 0h-.403a.4.4 0 0 0-.8 0v-2.508l-1.122-1.906a.397.397 0 0 0 .325-.387.401.401 0 0 0-.403-.398.393.393 0 0 0-.297.14L12.7 12.399h4.903v4.403a.401.401 0 1 0 0 .8v.797a.401.401 0 0 0 0 .8v.802a.401.401 0 1 0 0 .8zM18 11.602H6a.401.401 0 0 1 0-.801h12a.4.4 0 0 1 0 .8zm3.2 9.597a.4.4 0 0 0-.802 0h-.796a.401.401 0 0 0-.801 0h-.403v-8.87c.465-.169.801-.606.801-1.13C19.2 10.54 18.66 10 18 10h-5.602V4.738l7.23 4.7.915 6.66a.398.398 0 0 0-.145.3c0 .165.098.301.239.364l.113.847a.4.4 0 0 0-.352.391c0 .223.18.398.403.398.02 0 .039-.007.058-.011l.118.86a.393.393 0 0 0-.176-.048.401.401 0 0 0 0 .8.404.404 0 0 0 .265-.104l.18 1.304zm0 0"/>
</svg>
